X: 305644
M: 6/8
L: 1/8
K: D
d/e/ |\
fAf gfg | eAe fef | dcd Bed | cBc A3 |\
fAf gfg | eAe fef | dcd Bed | cBc d2 H|]
.[FD](3(dcd) .A(3(dcd) | .A(3(fed) ABc | def ged | ca^g a2z |\


